X:1
T:Mickel, SM
T:Mickel, SM
T:Anthony Johnson Showalter, 1897
T:Public Domain Courtesy of the Cyber Hymnal™
C:Anthony Johnson Showalter, 1897
Z:Public Domain
Z:Courtesy of the Cyber Hymnal™
%%score ( 1 2 ) ( 3 4 )
L:1/8
Q:1/4=103
M:3/4
K:G
V:1 treble 
V:2 treble 
V:3 bass 
V:4 bass 
V:1
 D2 | [B,D][B,G] [B,G]2 [DA]2 | [DB]4 [DG]2 | [CE][EA] [DG]2 [DF]2 | [DG]4 [DA]2 | %5
 [DB][DB] [DA]2 [Dd]2 | [Ed][EB] [Ec]2 [FA]2 | [GB][Ge] [Gd]2 [DF]2 | [DG]4 |] %9
V:2
 D2 | x6 | x6 | x6 | x6 | x6 | x6 | x6 | x4 |] %9
V:3
 G,2 | G,G, [E,G,]2 [D,F,]2 | G,4 [B,,G,]2 | [C,G,][A,,C] [D,B,]2 [D,A,]2 | [G,,B,]4 [D,F,]2 | %5
 G,G, G,2 [F,A,]2 | [E,^G,][E,G,] A,2 [D,D]2 | [G,D][C,C] [D,B,]2 [D,A,]2 | [G,,B,]4 |] %9
V:4
 G,2 | G,G, x4 | G,4 x2 | x6 | x6 | G,G, G,2 x2 | x2 A,2 x2 | x6 | x4 |] %9

